X:1
T:Title
%%score { ( 1 3 ) | 2 }
L:1/8
M:4/4
K:Bb
V:1 treble nm="Grand Piano"
V:3 treble 
V:2 bass 
V:1
 z4 z2[Q:1/4=100] [B,DF][B,DF] | [DFB]2 [DFB]2 [DFB][EG][DF][EG] | [DB]2 [EG]2 [DF]2 Bc | d6 z2 | %4
 c6 z2 | [DB]2 [Fd]2 [DB][Ec][DB][Fc] | [GB]2 [EG]2 [DF]2 GB | d6 z2 |[M:3/4] [B,DB]6 |[M:1/4] z2 | %10
[M:4/4] B6 z2 | D2 DE F2 Bc | d6 z2 | c6 z2 | [DB]2 [Fd]2 [Fd][Ec][DB][Fc] | %15
 [B,GB]2 [B,EG]2 [B,DF]2 dB | d6 z2 |[M:3/4] [DFB]6 |] %18
V:2
 z4 z2 B,,B,, | B,,2 B,,2 B,,[B,,B,][B,,B,][B,,B,] | [B,,F,]2 [B,,B,]2 [B,,B,]2 z2 | %3
 [B,F]2 [G,B,]2[K:bass] [D,B,]2 [G,B,=E][G,B,E] | [F,A,F]2 [C,B,][C,B,] [F,A,]2 [B,,B,][B,,B,] | %5
 [B,,F,]2 [B,,B,]2 [B,,F,][B,,F,][B,,F,][D,B,] | [E,B,]2 [E,B,]2 [B,,B,]2 z2 | %7
 [B,F]2 [G,B,]2[K:bass] [D,B,]2 [F,A,E][F,A,E] |[M:3/4] B,,6 |[M:1/4][K:treble] FG | %10
[M:4/4][K:bass] [B,,F,]2 [B,,G,]2 [B,,B,]2 [E,B,E][E,B,E] | [B,,B,]2 [B,,B,][C,A,] [D,B,]2 z2 | %12
 [B,F]2 [A,C]2[K:bass] [G,B,]2 [C,G,][C,B,] | [F,A,F]2 [G,B,]2 [F,A,]2 [B,,B,][B,,B,] | %14
 [B,,B,]2 [B,,B,]2 [B,,B,][B,,F,][B,,F,][D,B,] | E,2 E,2 B,,2[K:treble] FD | %16
 [B,F]2[K:bass] [A,C]2 [G,B,]2 [F,D][F,EF] |[M:3/4] B,,6 |] %18
V:3
 x8 | x8 | x8 | z2 G2 F2 BB | z2 =EE F2 [Fd][_Ec] | x8 | x8 | z2 G2 F2 cc |[M:3/4] x6 |[M:1/4] x2 | %10
[M:4/4] D2 E2 D2 GG | F4 z4 | z2 ^F2 G2 [=Ec][Ed] | z2 =E2 F2 [Fd][_Ec] | x8 | x8 | z2 ^F2 G2 Bc | %17
[M:3/4] x6 |] %18

